X: 1114
T: Amorous Lover, The
R: reel
M: 4/4
K: Amixolydian
|:A2cd cAcd|AccA BBBc|AAcd cAcd|eAAG A2AG:|
|:Agge gaaf|g2ge dBGB|Agge gaaf|gedB A2AG:|

